icons/serverless.svg

<?xml version="1.0" encoding="UTF-8"?>
<svg fill="none" version="1.1" viewBox="0 0 24 24" xmlns="http://www.w3.org/2000/svg">
 <path d="m2.0773 16.605h3.5126l-1.0883 3.2866h-2.4243zm0-6.2483h5.5816l-1.0882 3.2866h-4.4934zm0-6.2482h7.6507l-1.0884 3.2865h-6.5623zm11.113 0h8.7328v3.2865h-9.821zm-2.0689 6.2482h10.802v3.2866h-11.89zm-2.069 6.2483h12.871v3.2866h-13.959z" fill="#ef5350" stroke-width=".94502"/>
</svg>

<svg fill="none" viewBox="0 0 24 24" xmlns="http://www.w3.org/2000/svg"><path d="M2.077 16.605H5.59l-1.088 3.287H2.077zm0-6.248H7.66L6.57 13.643H2.077zm0-6.248h7.651L8.64 7.395H2.077zm11.113 0h8.733v3.286h-9.82zm-2.069 6.248h10.802v3.286h-11.89zm-2.069 6.248h12.871v3.287H7.964z" fill="#ef5350" stroke-width=".945"/></svg>
